HTML/img/Component/RGB Chess.svg

<svg xmlns="http://www.w3.org/2000/svg" xml:space="preserve" fill="none" viewBox="0 0 348 348"><path stroke="#000" stroke-width="1.999" d="M5.08 5.78h336.91v337.67H5.08z"/><ellipse cx="298.29" cy="40.55" stroke="#000" stroke-width="2" rx="15.9" ry="15.51"/><rect width="205" height="205.45" x="38.348" y="-243.71" stroke="#000" stroke-width="1.999" rx="9.097" ry=".398" transform="scale(1 -1)"/><path stroke="#000" stroke-width="1.999" d="m73.176 38.251-.572 205.23M107.48 38.355l-.573 205M141.28 243.29l.234-204.83M175.56 243.23l-.52-204.51M209.78 243.2l-.728-204.72M38.251 72.032l204.87.208M243.02 106.54l-204.35-.104M38.459 140.53l204.56-.104M243.23 174.73H38.36M38.563 209.13l204.46.104"/><rect width="206.41" height="41.43" x="38.398" y="-297.06" stroke="#000" stroke-width="1.999" rx=".997" ry=".388" transform="scale(1 -1)"/><rect width="53.115" height="53.842" x="259.65" y="247.59" stroke="#000" stroke-width="1.999" rx="11.097" ry=".388"/><path stroke="#000" stroke-width="1.999" d="m203.5 255.98.165 40.663M162.34 296.6l-.073-40.645M120.9 256.08l-.09 40.564M79.36 296.63l-.026-40.668"/></svg>

<svg xmlns="http://www.w3.org/2000/svg" xml:space="preserve" fill="none" viewBox="0 0 348 348">
  <path stroke="#000" stroke-width="2" d="M5 5.8h337v337.7H5z"/>
  <ellipse cx="298.3" cy="40.5" stroke="#000" stroke-width="2" rx="15.9" ry="15.5"/>
  <rect width="205" height="205.4" x="38.3" y="-243.7" stroke="#000" stroke-width="2" rx="9.1" ry=".4" transform="scale(1 -1)"/>
  <path stroke="#000" stroke-width="2" d="m73.2 38.3-.6 205.2m34.9-205.1-.6 205m34.4-.1.2-204.8m34 204.7L175 38.7m34.8 204.5L209 38.5M38.3 72l204.8.2m0 34.3H38.6m-.2 34H243m.2 34.2H38.4m.2 34.4 204.4.1"/>
  <rect width="206.4" height="41.4" x="38.4" y="-297.1" stroke="#000" stroke-width="2" rx="1" ry=".4" transform="scale(1 -1)"/>
  <rect width="53.1" height="53.8" x="259.6" y="247.6" stroke="#000" stroke-width="2" rx="11.1" ry=".4"/>
  <path stroke="#000" stroke-width="2" d="m203.5 256 .2 40.6m-41.4 0V256m-41.4 0v40.6m-41.5 0V256"/>
  <rect width="77.8" height="78.9" x="250.2" y="128.6" fill="#000" stroke="#000" stroke-width="2" rx="16.3" ry=".6"/>
</svg>
